X:1
T:An Angelus
M:3/8
L:1/8
W:Ni ho salud gant karantez,
W:Rouanez ar Zent hag an Elez,
W:C'houi a zo benniget, O pia,
W:Hag a c'hrasou karget, Ave Maria.
K:G
GGA|G2F|EFG|A3|GAB|c2B|AGB|A3|G2A|B3|
AGB|A3|E2A|G3|F3|G2A|B3|AGB|A3|E2A|G2F|G3||
